X:1
T:Title
%%score 1 2 3
L:1/8
M:3/2
K:C
V:1 treble nm="Part_1"
V:2 treble-8 nm="Part_2"
V:3 treble-8 nm="Part_3"
V:1
 A12 | c6 B2 c2 A2 | G4 A2 B4 c2 | c4 B8 | A8 G4 | A4 z2 A4 _B2 | A2 G2 F2 E4 F2 | G2 D4 E2 F4 | %8
 GA _B4 A4 G^F | G4 z4 z4 | c4 c4 A4 | G2 A2 _B2 c4 A2 | G4 z2 _B4 A2 | c2 _B4 A4 GF | A4 z4 c4 | %15
 c8 A4 | G2 A2 _B2 A4 GF | EF G4 F4 E2 | F4 z4 z4 | A4 A4 A2 _B2 | G2 A2 _B2 c2 A2 B2 | %21
 c2 _B2 c2 d2 c2 B2 | c_B A2 G2 A2 B2 A2 | GA _B2 A2 G2 AF E2 | F2 G2 C2 DE F2 E2 | %25
 FG A4 c2 A2 B2 | c4 z2 _B2 c2 d2 | A4 z2 _B2 c2 A2 | G4 z2 A4 F2 | E4 D2 C4 DE | F2 G4 F4 E2 | %31
 F4 z4 z4 | A8 F4 | G4 D6 E2 | F4 E2 G2 F2 D2- | D2 E4 C2 D2 CB, | D4 z4 A4 | A8 G4 | F12 | %39
 A8 _B2 B2 | c2 _B4 A4 G2 | F8 c2 _B2 | A4 _B6 A2 | A8 !fermata!^G4 | A12 |] %45
V:2
 A12 | F12 | G8 A4 | F4 G8 | F8 E4 | D8 D4 | d4 c6 A2 | G8 D4 | E4 F4 A4 | G12 | z12 | c8 F4 | %12
 _E4 G4 z2 F2- | F2 G4 c4 _B2 | A4 c8 | A4 F8 | G6 D2 F2 G2 | A4 _B2 A4 G2 | F12- | F12 | c12 | %21
 F12- | F12 | G12 | F12- | F8 G4 | F12- | F4 G4 F4 | c8 G4 | A12 | z2 _B4 A2 G4 | F12- | F12 | %33
 E4 F4 G4 | D4 C4 F4 | G8 F2 E2 | D12 | d12 | D2 D4 D2 D4 | d4 d2 d4 d2 | c4 d2 c2 G4 | D8 z4 | %42
 F4 G6 F2 | F4 !fermata!E8 | D12 |] %45
V:3
 e12 | f12 | d8 z4 | f2 e2 d8 | d8 ^c4 | d8 z2 d2 | D4 F2 A2 c4 | d4 _B2 d4 d2 | _B4 A2 c2 A2 D2 | %9
 B2 c2 d4 d2 c2 | F12- | F8 c2 A2 | _B4 _E4 D4 | A2 d4 c2 G4 | D6 C2 C4 | c4 c8 | _B2 d8 B2 | %17
 c4 G2 F2 C4 | c4 f6 d2 | c12 | C12 | c12 | f6 e2 d2 c2 | _B4 d4 c2 B2 | c8 c4- | c2 d2 f2 d2 e4 | %26
 z2 f2 e2 d2 c4 | z2 f2 e2 d2 f4 | z2 e2 f2 d2 c4 | z2 g2 f4 e2 f2- | f2 d2 c4 _B4 | c12- | c8 A4 | %33
 B6 A2 B4 | z2 B2 c4 A4 | B2 c2 B2 B2 A2 G2 | A12 | D8 z4 | d6 d6 | D8 G4 | A4 _B6 A2 | A4 d4 c4 | %42
 z4 d4 A4 | d6 c2 !fermata!B4 | d12 |] %45

